packages/Snapp/src/GridIcon/index.svg

<?xml version="1.0" encoding="UTF-8"?>
<svg width="24px" height="24px" viewBox="0 0 24 24" version="1.1" xmlns="http://www.w3.org/2000/svg" xmlns:xlink="http://www.w3.org/1999/xlink">
    <title>Icons/24/Grid</title>
    <g id="Icons/24/Grid" stroke="none" stroke-width="1" fill="none" fill-rule="evenodd">
        <rect id="Container" fill-opacity="0" fill="#D8D8D8" fill-rule="nonzero" x="0" y="0" width="24" height="24"></rect>
        <path d="M4.9,4.9 L4.9,9.1 L9.1,9.1 L9.1,4.9 L4.9,4.9 Z M4,3.1 L10,3.1 C10.4970563,3.1 10.9,3.50294373 10.9,4 L10.9,10 C10.9,10.4970563 10.4970563,10.9 10,10.9 L4,10.9 C3.50294373,10.9 3.1,10.4970563 3.1,10 L3.1,4 C3.1,3.50294373 3.50294373,3.1 4,3.1 Z M14.9,9.1 L19.1,9.1 L19.1,4.9 L14.9,4.9 L14.9,9.1 Z M14,3.1 L20,3.1 C20.4970563,3.1 20.9,3.50294373 20.9,4 L20.9,10 C20.9,10.4970563 20.4970563,10.9 20,10.9 L14,10.9 C13.5029437,10.9 13.1,10.4970563 13.1,10 L13.1,4 C13.1,3.50294373 13.5029437,3.1 14,3.1 Z M14.9,19.1 L19.1,19.1 L19.1,14.9 L14.9,14.9 L14.9,19.1 Z M14,13.1 L20,13.1 C20.4970563,13.1 20.9,13.5029437 20.9,14 L20.9,20 C20.9,20.4970563 20.4970563,20.9 20,20.9 L14,20.9 C13.5029437,20.9 13.1,20.4970563 13.1,20 L13.1,14 C13.1,13.5029437 13.5029437,13.1 14,13.1 Z M4.9,19.1 L9.1,19.1 L9.1,14.9 L4.9,14.9 L4.9,19.1 Z M4,13.1 L10,13.1 C10.4970563,13.1 10.9,13.5029437 10.9,14 L10.9,20 C10.9,20.4970563 10.4970563,20.9 10,20.9 L4,20.9 C3.50294373,20.9 3.1,20.4970563 3.1,20 L3.1,14 C3.1,13.5029437 3.50294373,13.1 4,13.1 Z" id="Combined-Shape" fill="#404040" fill-rule="nonzero"></path>
    </g>
</svg>

<svg viewBox="0 0 24 24" xmlns="http://www.w3.org/2000/svg" fill="currentColor" focusable="false">
  <path d="M4.9 4.9v4.2h4.2V4.9H4.9zM4 3.1h6a.9.9 0 01.9.9v6a.9.9 0 01-.9.9H4a.9.9 0 01-.9-.9V4a.9.9 0 01.9-.9zm10.9 6h4.2V4.9h-4.2v4.2zm-.9-6h6a.9.9 0 01.9.9v6a.9.9 0 01-.9.9h-6a.9.9 0 01-.9-.9V4a.9.9 0 01.9-.9zm.9 16h4.2v-4.2h-4.2v4.2zm-.9-6h6a.9.9 0 01.9.9v6a.9.9 0 01-.9.9h-6a.9.9 0 01-.9-.9v-6a.9.9 0 01.9-.9zm-9.1 6h4.2v-4.2H4.9v4.2zm-.9-6h6a.9.9 0 01.9.9v6a.9.9 0 01-.9.9H4a.9.9 0 01-.9-.9v-6a.9.9 0 01.9-.9z" fill="none"/>
</svg>
